dist/img/common/svg/ic_tw-bg.svg

<svg width="46" height="46" viewBox="0 0 46 46" fill="none" xmlns="http://www.w3.org/2000/svg">
<rect width="46" height="46" rx="22.5" fill="#30A1E1"/>
<g clip-path="url(#clip0_236_13)">
<path d="M34 17.018C33.4048 17.8853 32.6853 18.6244 31.8413 19.2351C31.8503 19.359 31.8547 19.5448 31.8547 19.7927C31.8547 20.9433 31.6859 22.0938 31.3484 23.2444C31.0108 24.3862 30.4955 25.4837 29.8026 26.5369C29.1187 27.5901 28.3014 28.5239 27.3509 29.3382C26.4004 30.1436 25.2544 30.7896 23.9131 31.2765C22.5717 31.7544 21.1371 31.9933 19.6091 31.9933C17.2018 31.9933 14.9987 31.3516 13 30.0683C13.3109 30.1037 13.6574 30.1215 14.0393 30.1215C16.0381 30.1215 17.8192 29.5107 19.3826 28.2893C18.4499 28.2716 17.6148 27.9884 16.8775 27.4397C16.1402 26.8821 15.6339 26.174 15.3585 25.3155C15.6516 25.3598 15.9226 25.3819 16.1713 25.3819C16.5533 25.3819 16.9308 25.3332 17.3039 25.2358C16.309 25.0323 15.4829 24.5411 14.8255 23.7622C14.177 22.9745 13.8528 22.0629 13.8528 21.0273V20.9742C14.4568 21.3106 15.1053 21.492 15.7982 21.5185C15.2119 21.1291 14.7456 20.6202 14.3991 19.9918C14.0527 19.3634 13.8794 18.6819 13.8794 17.9473C13.8794 17.1684 14.0749 16.4471 14.4657 15.7833C15.5406 17.102 16.8465 18.1597 18.3832 18.9563C19.9289 19.744 21.5812 20.1821 23.3401 20.2706C23.269 19.9343 23.2335 19.6068 23.2335 19.2882C23.2335 18.1022 23.651 17.0932 24.486 16.2612C25.33 15.4204 26.3471 15 27.5374 15C28.7811 15 29.8293 15.4514 30.6821 16.3542C31.6504 16.1683 32.561 15.8231 33.4137 15.3186C33.0851 16.3365 32.4543 17.1242 31.5216 17.6818C32.3477 17.5933 33.1739 17.372 34 17.018Z" fill="white"/>
</g>
<defs>
<clipPath id="clip0_236_13">
<rect width="21" height="17" fill="white" transform="translate(13 15)"/>
</clipPath>
</defs>
</svg>

<svg width="46" height="46" viewBox="0 0 46 46" fill="none" xmlns="http://www.w3.org/2000/svg"><rect width="46" height="46" rx="22.5" fill="#30A1E1"/><g clip-path="url(#clip0_236_13)"><path d="M34 17.018a9.001 9.001 0 01-2.159 2.217c.01.124.014.31.014.558 0 1.15-.17 2.3-.507 3.451a12.34 12.34 0 01-1.545 3.293 12.972 12.972 0 01-2.452 2.801c-.95.806-2.097 1.452-3.438 1.938-1.341.478-2.776.717-4.304.717-2.407 0-4.61-.641-6.609-1.925.31.036.657.053 1.04.053 1.998 0 3.78-.61 5.343-1.832a4.23 4.23 0 01-2.505-.85 4.23 4.23 0 01-1.52-2.123c.294.044.565.066.813.066.382 0 .76-.049 1.133-.146a4.28 4.28 0 01-2.478-1.474 4.177 4.177 0 01-.973-2.735v-.053a4.28 4.28 0 001.945.544 4.29 4.29 0 01-1.399-1.526 4.167 4.167 0 01-.52-2.045c0-.779.196-1.5.587-2.164a12.296 12.296 0 003.917 3.173 12.137 12.137 0 004.957 1.315 4.744 4.744 0 01-.107-.983c0-1.186.418-2.195 1.253-3.027.844-.84 1.861-1.261 3.051-1.261 1.244 0 2.292.451 3.145 1.354a8.458 8.458 0 002.732-1.035c-.329 1.018-.96 1.805-1.892 2.363A8.601 8.601 0 0034 17.018z" fill="#fff"/></g><defs><clipPath id="clip0_236_13"><path fill="#fff" transform="translate(13 15)" d="M0 0h21v17H0z"/></clipPath></defs></svg>
